X: 39526
T: Tavanagh
R: reel
M: 4/4
K: Amajor
|:E3F ~A3B|c2 BA FBBA|FBBA Bcde|faec BcAF|
~E3F ABcA|EFdA cABA|FBBA Bcdf|1 ecBd cBAF:|2 ecBd cA A2||
|:B3c ~d2 de|faab a2 f2|e2 cA BAFB|AecA BAFA|
B3c ~d2 de|faab a2 fg|a2 fa e2 af|eAcA BAFA:|

